public/avatar/body/38.svg

<svg xmlns:xlink="http://www.w3.org/1999/xlink" height="82" width="84.85" xmlns="http://www.w3.org/2000/svg"><g transform="translate(37.4 42.25)"><use height="38.95" transform="translate(-11.65 -19.55)" width="31.25" xlink:href="#a"/><use height="24.7" transform="translate(3.75 -.75)" width="17.5" xlink:href="#b"/><use height="24.7" transform="matrix(-1 0 0 1 5.05 -.7)" width="17.5" xlink:href="#b"/></g><defs><g id="a"><path d="m-.15-15.45-.15.85q-.65 1.55-1.95 2.45l-.15.1q-1.35.6-2.25-.2l.05.6.3.7q.4.65-.3 1.3-.7.6-1.2 2.15-.5 1.5.9 6.05L-6.95-.3Q-8.4-5.25-7.5-9.15l-.25.45q-.75 1.6-1.8 5.65l-.05-1.5q.05-2.2.95-4.25L-6.6-12l1.45-1.7q2.15-1.9 5-1.75M-10.3-.2l-.1.65-.25 2-.45-.6-.55-.5L-10.3-.2m29.1 1.65L18.55-.9q.55.5 1.05.65l-.8 1.7M7.35 9.6l-.35.65-.7 1.4q-1 2-1.05 4.35L5 18.15h-.05l-.2.9V19H4.1l-.85-5.25q-.35-1.65-1.2-3l-.45-.65q.35-1.55 1.35-.85l.55.6q-.15-1.45.9-1l.3.35.1.4q.45-1.15 1.05-.45l.15.5 1.35-.05" fill="#54483d" fill-rule="evenodd" transform="translate(11.65 19.55)"/><path d="M-6.6 5.6V.7Q-4.9.2-3.3-.7l1.65-1.1Q.3-3.3 2.9-3.25q2.9-.45 5.5.85 1.7.85 3.35 1.75l1.45.8.3.15 1 .45v4.8q-.5.1-.6.4l-1.05.4-1.75.5q-1.35.3-2.35.85l-1.4 1.9L6 9.65l-.15-.5q-.6-.7-1.05.45l-.1-.4-.3-.35q-1.05-.45-.9 1l-.55-.6q-1-.7-1.35.85l-1.45-2 .4-.55h-.9l-1.7-.4-1.45-.25-2.35-.95q-.4-.15-.75-.35" fill="#b09e8c" fill-rule="evenodd" transform="translate(11.65 19.55)"/><path d="M11.1 11.45v-.05l.05.05h-.05" fill-rule="evenodd" transform="translate(11.65 19.55)"/><path d="m5 18.15-.25 1.25v-.35l.2-.9H5" fill="#ffc" fill-rule="evenodd" transform="translate(11.65 19.55)"/><path d="M17.85-3.55q.05-2.15-.6-4.2-.7-2.25-1.9-4.15l-.15-.2-.6-.65q-1.45-1.05-2.3-1.3m-21.85 11L-10.3-.2l-.1.65-.25 2m29.45-1L18.55-.9l-.7-2.65m-18-11.9q-2.85-.15-5 1.75L-6.6-12l-2.05 3.2q-.9 2.05-.95 4.25l.05 1.5" fill="none" stroke="#000" stroke-linecap="round" stroke-linejoin="round" transform="translate(11.65 19.55)"/><path d="M11.1 11.45v-.05Q9.85 9.95 8.75 7.7" fill="none" stroke="#a97e01" stroke-linecap="round" stroke-linejoin="round" transform="translate(11.65 19.55)"/><path d="M13.15 0 14 1.4l2.05-1.6m-.9 3.05L14 1.4l-.5.3-2.35 1.5.85 1.5m-3.35 0 2.5-1.5q-.65-.8-1.6-1.35" fill="none" stroke="#7b5f2f" stroke-linecap="round" stroke-linejoin="round" transform="translate(11.65 19.55)"/><path d="M12.3-14.05q-.15.5-1.95.8l-3.8.3q-2 0-3.85-.55-1.95-.6-2.85-1.95 1.15.1 2.1-.4l5.8-2.65q4.9-2.15 4.55 4.45m-4.65-.6q.7-.75.75-1.75-.05 1-.75 1.75m1.75-.45.2-.4-.2.4m-3.7-.1.4-.6-.4.6" fill="#54483d" fill-rule="evenodd" transform="translate(11.65 19.55)"/><path d="M-.15-15.45q1.15.1 2.1-.4l5.8-2.65q4.9-2.15 4.55 4.45" fill="none" stroke="#000" stroke-linecap="round" stroke-linejoin="round" transform="translate(11.65 19.55)"/><path d="m6.1-15.8-.4.6m3.9-.3-.2.4m-1-1.3q-.05 1-.75 1.75" fill="none" stroke="#a97e01" stroke-linecap="round" stroke-linejoin="round" transform="translate(11.65 19.55)"/></g><g id="d"><path d="M4.5 7.95q1.1 2.25 2.35 3.7v.05h.05l1.15 1.85 2.65-2.7.3-.3 2.05-2.75.3-.4 1.25-2.55.8-2.75q1.25 4.45 1.1 9.45v6.9l-2.95.45-1 .1.2-1.2.75-5.85q.25-2.25-.15-4.55.4 2.3.15 4.55l-.75 5.85-.2 1.2-1.55.5-.45.1-1.3.35q-2 .75-4.15.85h-.85l-2.85.65-.1.05-.95.1H0v-.85h.05l.1.85.15-.85.45-2.35 1.3-2.1 1.6-2.5q.85-1.45.85-5.85m2.35 3.75q-.35 2.45-1.15 4.55-.65 1.6-1.4 4.5l-.05.05.05-.05q.75-2.9 1.4-4.5.8-2.1 1.15-4.55M11 10.55v2.05q-.25 3.95-1.75 7.35 1.5-3.4 1.75-7.35v-2.05" fill="#ffc" fill-rule="evenodd" transform="translate(.5 .5)"/><path d="M.75 18.4 1 16.25q.05-2.35 1.05-4.35l.7-1.4.35-.65 1.4-1.9q0 4.4-.85 5.85l-1.6 2.5-1.3 2.1" fill="#333" fill-rule="evenodd" transform="translate(.5 .5)"/><path d="M.05 20.75H.3l-.15.85-.1-.85" fill="#54483d" fill-rule="evenodd" transform="translate(.5 .5)"/><path d="m13.55 18.9.05 3-3.05 1-5.45.8-3.75-.15-.05-2.05.1-.05 2.85-.65h.85q2.15-.1 4.15-.85l1.3-.35.45-.1 1.55-.5 1-.1" fill="#f1db92" fill-rule="evenodd" transform="translate(.5 .5)"/><path d="M15.4 2.1q1.25 4.45 1.1 9.45v6.9l-2.95.45.05 3-3.05 1-5.45.8-3.75-.15-.05-2.05-.95.1H0m.3-.85.45-2.35 1.3-2.1 1.6-2.5q.85-1.45.85-5.85M12.55 19l1-.1M.15 21.6l.15-.85m-.25 0 .1.85m12.4-2.6-1.55.5-.45.1-1.3.35q-2 .75-4.15.85h-.85l-2.85.65-.1.05" fill="none" stroke="#a97e01" stroke-linecap="round" stroke-linejoin="round" transform="translate(.5 .5)"/><path d="M13.35 7.4q.4 2.3.15 4.55l-.75 5.85-.2 1.2m-8.3 1.8.05-.05q.75-2.9 1.4-4.5.8-2.1 1.15-4.55m2.4 8.25q1.5-3.4 1.75-7.35v-2.05" fill="none" stroke="#f1db92" stroke-linecap="round" stroke-linejoin="round" transform="translate(.5 .5)"/><path d="M.75 18.4 1 16.25q.05-2.35 1.05-4.35l.7-1.4.35-.65 1.4-1.9" fill="none" stroke="#000" stroke-linecap="round" stroke-linejoin="round" transform="translate(.5 .5)"/><path d="m14.55 1.7.8-1.7q-.05 1.4.05 2.1l-.8 2.75-1.25 2.55-.3.4L11 10.55l-.3.3-2.65 2.7L6.9 11.7l-.05-.05Q5.6 10.2 4.25 7.9l2.6-.8 1.75-.5 1.05-.4q1.6-.95 2.9-2.15l2-2.35" fill="url(#c)" fill-rule="evenodd" transform="translate(.5 .5)"/><path d="m14.55 1.7.8-1.7q-.05 1.4.05 2.1l-.8 2.75-1.25 2.55-.3.4L11 10.55l-.3.3-2.65 2.7L6.9 11.7l-.05-.05Q5.6 10.2 4.25 7.9l2.6-.8 1.75-.5 1.05-.4q1.6-.95 2.9-2.15l2-2.35Z" fill="none" stroke="#000" stroke-linecap="round" stroke-linejoin="round" transform="translate(.5 .5)"/></g><linearGradient gradientTransform="matrix(-.0038 .0037 -.0057 -.006 7.35 5.75)" gradientUnits="userSpaceOnUse" id="c" spreadMethod="pad" x1="-819.2" x2="819.2"><stop offset="0"/><stop offset=".545" stop-color="#999"/><stop offset="1"/></linearGradient><use height="24.7" width="17.5" xlink:href="#d" id="b"/></defs></svg>

<?xml version="1.0" encoding="UTF-8" standalone="no"?>
<svg xmlns:xlink="http://www.w3.org/1999/xlink" height="82.0px" width="84.85px" xmlns="http://www.w3.org/2000/svg">
  <g transform="matrix(1.0, 0.0, 0.0, 1.0, 37.4, 42.25)">
    <use height="38.95" transform="matrix(1.0, 0.0, 0.0, 1.0, -11.65, -19.55)" width="31.25" xlink:href="#shape0"/>
    <use height="24.7" transform="matrix(1.0, 0.0, 0.0, 1.0, 3.75, -0.75)" width="17.5" xlink:href="#sprite0"/>
    <use height="24.7" transform="matrix(-1.0, 0.0, 0.0, 1.0, 5.05, -0.7)" width="17.5" xlink:href="#sprite0"/>
  </g>
  <defs>
    <g id="shape0" transform="matrix(1.0, 0.0, 0.0, 1.0, 11.65, 19.55)">
      <path d="M-0.15 -15.45 L-0.3 -14.6 Q-0.95 -13.05 -2.25 -12.15 L-2.4 -12.05 Q-3.75 -11.45 -4.65 -12.25 L-4.6 -11.65 -4.3 -10.95 Q-3.9 -10.3 -4.6 -9.65 -5.3 -9.05 -5.8 -7.5 -6.3 -6.0 -4.9 -1.45 L-6.95 -0.3 Q-8.4 -5.25 -7.5 -9.15 L-7.75 -8.7 Q-8.5 -7.1 -9.55 -3.05 L-9.6 -4.55 Q-9.55 -6.75 -8.65 -8.8 L-6.6 -12.0 -5.15 -13.7 Q-3.0 -15.6 -0.15 -15.45 M-10.3 -0.2 L-10.4 0.45 -10.65 2.45 -11.1 1.85 -11.65 1.35 -10.3 -0.2 M18.8 1.45 L18.55 -0.9 Q19.1 -0.4 19.6 -0.25 L18.8 1.45 M7.35 9.6 L7.0 10.25 6.3 11.65 Q5.3 13.65 5.25 16.0 L5.0 18.15 4.95 18.15 4.75 19.05 4.75 19.0 4.1 19.0 3.25 13.75 Q2.9 12.1 2.05 10.75 L1.6 10.1 Q1.95 8.55 2.95 9.25 L3.5 9.85 Q3.35 8.4 4.4 8.85 L4.7 9.2 4.8 9.6 Q5.25 8.45 5.85 9.15 L6.0 9.65 7.35 9.6" fill="#54483d" fill-rule="evenodd" stroke="none"/>
      <path d="M-6.6 5.6 L-6.6 0.7 Q-4.9 0.2 -3.3 -0.7 L-1.65 -1.8 Q0.3 -3.3 2.9 -3.25 5.8 -3.7 8.4 -2.4 10.1 -1.55 11.75 -0.65 L13.2 0.15 13.5 0.3 14.5 0.75 14.5 5.55 Q14.0 5.65 13.9 5.95 L12.85 6.35 11.1 6.85 Q9.75 7.15 8.75 7.7 L7.35 9.6 6.0 9.65 5.85 9.15 Q5.25 8.45 4.8 9.6 L4.7 9.2 4.4 8.85 Q3.35 8.4 3.5 9.85 L2.95 9.25 Q1.95 8.55 1.6 10.1 L0.15 8.1 0.55 7.55 -0.35 7.55 -2.05 7.15 -3.5 6.9 -5.85 5.95 Q-6.25 5.8 -6.6 5.6" fill="#b09e8c" fill-rule="evenodd" stroke="none"/>
      <path d="M11.1 11.45 L11.1 11.4 11.15 11.45 11.1 11.45" fill="#000000" fill-rule="evenodd" stroke="none"/>
      <path d="M5.0 18.15 L4.75 19.4 4.75 19.05 4.95 18.15 5.0 18.15" fill="#ffffcc" fill-rule="evenodd" stroke="none"/>
      <path d="M17.85 -3.55 Q17.9 -5.7 17.25 -7.75 16.55 -10.0 15.35 -11.9 L15.2 -12.1 14.6 -12.75 Q13.15 -13.8 12.3 -14.05 M-9.55 -3.05 L-10.3 -0.2 -10.4 0.45 -10.65 2.45 M18.8 1.45 L18.55 -0.9 17.85 -3.55 M-0.15 -15.45 Q-3.0 -15.6 -5.15 -13.7 L-6.6 -12.0 -8.65 -8.8 Q-9.55 -6.75 -9.6 -4.55 L-9.55 -3.05" fill="none" stroke="#000000" stroke-linecap="round" stroke-linejoin="round" stroke-width="1.0"/>
      <path d="M11.1 11.45 L11.1 11.4 Q9.85 9.95 8.75 7.7" fill="none" stroke="#a97e01" stroke-linecap="round" stroke-linejoin="round" stroke-width="1.0"/>
      <path d="M13.15 0.0 L14.0 1.4 16.05 -0.2 M15.15 2.85 L14.0 1.4 13.5 1.7 11.15 3.2 12.0 4.7 M8.65 4.7 L11.15 3.2 Q10.5 2.4 9.55 1.85" fill="none" stroke="#7b5f2f" stroke-linecap="round" stroke-linejoin="round" stroke-width="1.0"/>
      <path d="M12.3 -14.05 Q12.15 -13.55 10.35 -13.25 L6.55 -12.95 Q4.55 -12.95 2.7 -13.5 0.75 -14.1 -0.15 -15.45 1.0 -15.35 1.95 -15.85 L7.75 -18.5 Q12.65 -20.65 12.3 -14.05 M7.65 -14.65 Q8.35 -15.4 8.4 -16.4 8.35 -15.4 7.65 -14.65 M9.4 -15.1 L9.6 -15.5 9.4 -15.1 M5.7 -15.2 L6.1 -15.8 5.7 -15.2" fill="#54483d" fill-rule="evenodd" stroke="none"/>
      <path d="M-0.15 -15.45 Q1.0 -15.35 1.95 -15.85 L7.75 -18.5 Q12.65 -20.65 12.3 -14.05" fill="none" stroke="#000000" stroke-linecap="round" stroke-linejoin="round" stroke-width="1.0"/>
      <path d="M6.1 -15.8 L5.7 -15.2 M9.6 -15.5 L9.4 -15.1 M8.4 -16.4 Q8.35 -15.4 7.65 -14.65" fill="none" stroke="#a97e01" stroke-linecap="round" stroke-linejoin="round" stroke-width="1.0"/>
    </g>
    <g id="sprite0" transform="matrix(1.0, 0.0, 0.0, 1.0, 0.5, 0.5)">
      <use height="24.7" transform="matrix(1.0, 0.0, 0.0, 1.0, -0.5, -0.5)" width="17.5" xlink:href="#shape1"/>
    </g>
    <g id="shape1" transform="matrix(1.0, 0.0, 0.0, 1.0, 0.5, 0.5)">
      <path d="M4.5 7.95 Q5.6 10.2 6.85 11.65 L6.85 11.7 6.9 11.7 8.05 13.55 10.7 10.85 11.0 10.55 13.05 7.8 13.35 7.4 14.6 4.85 15.4 2.1 Q16.65 6.55 16.5 11.55 L16.5 18.45 13.55 18.9 12.55 19.0 12.75 17.8 13.5 11.95 Q13.75 9.7 13.35 7.4 13.75 9.7 13.5 11.95 L12.75 17.8 12.55 19.0 11.0 19.5 10.55 19.6 9.25 19.95 Q7.25 20.7 5.1 20.8 L4.25 20.8 1.4 21.45 1.3 21.5 0.35 21.6 0.15 21.6 0.0 21.6 0.0 20.75 0.05 20.75 0.15 21.6 0.3 20.75 0.75 18.4 2.05 16.3 3.65 13.8 Q4.5 12.35 4.5 7.95 M6.85 11.7 Q6.5 14.15 5.7 16.25 5.05 17.85 4.3 20.75 L4.25 20.8 4.3 20.75 Q5.05 17.85 5.7 16.25 6.5 14.15 6.85 11.7 M11.0 10.55 L11.0 12.6 Q10.75 16.55 9.25 19.95 10.75 16.55 11.0 12.6 L11.0 10.55" fill="#ffffcc" fill-rule="evenodd" stroke="none"/>
      <path d="M0.75 18.4 L1.0 16.25 Q1.05 13.9 2.05 11.9 L2.75 10.5 3.1 9.85 4.5 7.95 Q4.5 12.35 3.65 13.8 L2.05 16.3 0.75 18.4" fill="#333333" fill-rule="evenodd" stroke="none"/>
      <path d="M0.05 20.75 L0.3 20.75 0.15 21.6 0.05 20.75" fill="#54483d" fill-rule="evenodd" stroke="none"/>
      <path d="M13.55 18.9 L13.6 21.9 10.55 22.9 5.1 23.7 1.35 23.55 1.3 21.5 1.4 21.45 4.25 20.8 5.1 20.8 Q7.25 20.7 9.25 19.95 L10.55 19.6 11.0 19.5 12.55 19.0 13.55 18.9" fill="#f1db92" fill-rule="evenodd" stroke="none"/>
      <path d="M15.4 2.1 Q16.65 6.55 16.5 11.55 L16.5 18.45 13.55 18.9 13.6 21.9 10.55 22.9 5.1 23.7 1.35 23.55 1.3 21.5 0.35 21.6 0.15 21.6 0.0 21.6 M0.3 20.75 L0.75 18.4 2.05 16.3 3.65 13.8 Q4.5 12.35 4.5 7.95 M12.55 19.0 L13.55 18.9 M0.15 21.6 L0.3 20.75 M0.05 20.75 L0.15 21.6 M12.55 19.0 L11.0 19.5 10.55 19.6 9.25 19.95 Q7.25 20.7 5.1 20.8 L4.25 20.8 1.4 21.45 1.3 21.5" fill="none" stroke="#a97e01" stroke-linecap="round" stroke-linejoin="round" stroke-width="1.0"/>
      <path d="M13.35 7.4 Q13.75 9.7 13.5 11.95 L12.75 17.8 12.55 19.0 M4.25 20.8 L4.3 20.75 Q5.05 17.85 5.7 16.25 6.5 14.15 6.85 11.7 M9.25 19.95 Q10.75 16.55 11.0 12.6 L11.0 10.55" fill="none" stroke="#f1db92" stroke-linecap="round" stroke-linejoin="round" stroke-width="1.0"/>
      <path d="M0.75 18.4 L1.0 16.25 Q1.05 13.9 2.05 11.9 L2.75 10.5 3.1 9.85 4.5 7.95" fill="none" stroke="#000000" stroke-linecap="round" stroke-linejoin="round" stroke-width="1.0"/>
      <path d="M14.55 1.7 L15.35 0.0 Q15.3 1.4 15.4 2.1 L14.6 4.85 13.35 7.4 13.05 7.8 11.0 10.55 10.7 10.85 8.05 13.55 6.9 11.7 6.85 11.65 Q5.6 10.2 4.25 7.9 L6.85 7.1 8.6 6.6 9.65 6.2 Q11.25 5.25 12.55 4.05 L14.55 1.7" fill="url(#gradient0)" fill-rule="evenodd" stroke="none"/>
      <path d="M14.55 1.7 L15.35 0.0 Q15.3 1.4 15.4 2.1 L14.6 4.85 13.35 7.4 13.05 7.8 11.0 10.55 10.7 10.85 8.05 13.55 6.9 11.7 6.85 11.65 Q5.6 10.2 4.25 7.9 L6.85 7.1 8.6 6.6 9.65 6.2 Q11.25 5.25 12.55 4.05 L14.55 1.7 Z" fill="none" stroke="#000000" stroke-linecap="round" stroke-linejoin="round" stroke-width="1.0"/>
    </g>
    <linearGradient gradientTransform="matrix(-0.0038, 0.0037, -0.0057, -0.006, 7.35, 5.75)" gradientUnits="userSpaceOnUse" id="gradient0" spreadMethod="pad" x1="-819.2" x2="819.2">
      <stop offset="0.0" stop-color="#000000"/>
      <stop offset="0.5450980392156862" stop-color="#999999"/>
      <stop offset="1.0" stop-color="#000000"/>
    </linearGradient>
  </defs>
</svg>
